static/images/mobile/copyright/wikipedia-tagline-ps.svg

<?xml version="1.0" encoding="UTF-8"?>
<svg width="84px" height="16px" viewBox="0 0 84 16" version="1.1" xmlns="http://www.w3.org/2000/svg" xmlns:xlink="http://www.w3.org/1999/xlink">
    <title>wikipedia-tagline-ps</title>
    <g id="Page-1" stroke="none" stroke-width="1" fill="none" fill-rule="evenodd">
        <path d="M82.2191073,6.9819919 C82.3482634,7.38437297 82.6140309,7.87119884 83.0164109,8.44247269 C82.65874,9.81353736 81.9905957,10.4990681 81.0119758,10.4990681 L79.9538718,10.4990681 C79.5415534,10.4990681 79.2434961,10.4071679 79.0596999,10.2233654 C79.0447912,10.7747708 79.0025672,11.1299555 78.9330258,11.2889205 C78.7442509,11.8055521 77.9096915,12.5954024 76.4293444,13.6584755 C75.2023403,14.542709 74.2634603,15.0543735 73.6127034,15.1934712 C73.6127034,14.9053449 73.6847332,14.5228385 73.8287947,14.04595 C74.1318191,13.9366592 74.8744772,13.5168959 76.0567733,12.7866582 C76.1064464,12.7568503 76.6528837,12.3271518 77.6960885,11.4975606 C78.0984611,11.1845999 78.2872297,10.81948 78.2623974,10.4021997 L76.4889559,10.8492857 C76.4243742,10.6654842 76.3920844,10.409652 76.3920875,10.0817879 C76.3920844,9.38632189 76.5063391,8.72562978 76.7348529,8.09970732 C77.0080684,7.39430821 77.3334474,7.04160336 77.7109909,7.04160336 C78.1481363,7.04160336 78.6026734,7.60294833 79.0746033,8.72562766 C79.2484642,9.08329749 79.5415534,9.26213187 79.9538718,9.26213081 L81.0566838,9.26213081 C81.2653229,9.26213187 81.5261233,9.10316798 81.8390851,8.78523913 C81.675152,8.53189201 81.5931859,8.37789626 81.593187,8.32324977 C81.5931859,7.70726785 81.7273112,7.2552148 81.9955649,6.96708956 C82.1396233,6.9571575 82.2141381,6.96212416 82.2191073,6.9819919 Z M83.0834735,11.3112751 C83.0834732,11.3112751 83.0897078,11.3175606 83.1021773,11.3301317 L83.1582905,11.3867016 C83.282987,11.5124126 83.5635563,11.7952626 84,12.2352527 L83.0462166,13.2337441 L82.1818504,12.3172177 L83.0834735,11.3112751 Z M81.0715872,11.3038228 L81.0902915,11.3226795 C81.0965263,11.328965 81.1043198,11.3368219 81.1136721,11.3462503 L81.1884903,11.4216769 C81.3287747,11.5631018 81.5953157,11.8318094 81.9881137,12.2278005 L81.0343303,13.226293 L80.1699642,12.3097665 L81.0715872,11.3038228 Z M65.7737963,6.36352379 C66.4990649,7.23286024 66.9113769,7.96806826 67.0107336,8.56914784 L67.0107336,8.86720515 C67.0107336,10.1985278 66.9461497,11.0132167 66.8169969,11.3112751 C66.2506838,12.5233726 65.7042454,13.3653832 65.1776817,13.8373099 C64.0599642,14.746381 63.1906319,15.3350434 62.5696798,15.6033002 C62.5994855,15.2307238 62.6938698,14.7339617 62.8528347,14.1130137 C64.2040257,13.4324458 65.1900978,12.3172166 65.8110532,10.7673197 C65.8557581,10.45436 65.813533,10.2308176 65.6843791,10.0966913 L65.4608356,10.1190458 C65.3118038,10.1786573 65.1429046,10.208463 64.9541382,10.208463 C64.666014,10.208463 64.3629896,10.1364322 64.0450639,9.99237068 C64.0698994,9.42109577 64.2884748,8.80014358 64.70079,8.12951305 L65.7737963,6.36352379 Z M60.8409474,6.62432313 C60.9005535,6.64916601 61.0942913,6.90996536 61.4221597,7.40672435 C61.7500163,7.89852156 61.9213995,8.15683683 61.9363082,8.18167335 C61.9561724,8.42012131 61.8717233,8.82001407 61.682959,9.38135374 C61.3409515,10.4225644 60.6501217,11.3620332 59.6104682,12.1997621 C59.6995588,12.1629806 59.7973428,12.1458355 59.9020674,12.1458355 C60.1454761,12.1458355 60.3541162,12.250154 60.5279877,12.4587951 C60.7068168,12.6724013 60.7962393,12.9282335 60.7962393,13.226293 C60.7962393,13.5243471 60.7068168,13.7776953 60.5279877,13.9863386 C60.3541162,14.1949755 60.1454761,14.2992993 59.9020674,14.2992993 C59.6437468,14.2992993 59.4276555,14.1949755 59.2537925,13.9863386 C59.0848902,13.7776953 59.0004433,13.5243471 59.0004433,13.226293 C59.0004433,12.9398695 59.0784254,12.6924405 59.2343973,12.4840051 C59.0219028,12.6417978 58.7940558,12.7943421 58.5533573,12.943138 C57.6989253,13.479639 56.9289445,13.8397908 56.2434137,14.0235965 C56.2334774,14.0235965 56.2707354,13.8298556 56.3551855,13.4423843 C56.4396345,13.0052314 56.4868266,12.7667856 56.4967619,12.7270467 C59.159404,11.6093313 60.7639442,10.4444248 61.3103879,9.23232508 C61.3103826,9.23232614 60.9974219,8.78772426 60.3715069,7.89851838 C60.4211788,7.51104706 60.5776587,7.08631566 60.8409474,6.62432313 Z M52.9200742,9.26213081 C53.1287133,9.26213187 53.3895137,9.10316798 53.7024755,8.78523913 C53.5385423,8.53189201 53.4565763,8.37789626 53.4565774,8.32324977 C53.4565763,7.70726785 53.5907016,7.2552148 53.8589553,6.96708956 C54.0030137,6.9571575 54.0775285,6.96212416 54.0824977,6.9819919 C54.2116538,7.38437297 54.4774213,7.87119884 54.8798013,8.44247269 C54.5221304,9.81353736 53.8539861,10.4990681 52.8753662,10.4990681 L51.8470679,10.4990681 C51.0274088,10.4990681 50.4909067,10.3823293 50.2375585,10.1488516 C49.7606668,9.68686327 49.5222209,9.01623486 49.5222209,8.13696422 L49.5222209,4.1131906 C49.5222209,2.24040568 49.4576424,1.14504609 49.3284842,0.827108969 L50.4536508,9.76996262e-15 C50.6523536,0.501739759 50.7740606,1.2642689 50.8187708,2.28758976 C50.8932835,3.31589467 50.9081858,4.06103667 50.8634788,4.52301966 C50.833672,4.98501431 50.8212527,5.70035078 50.8262219,6.66903226 C50.8510584,7.79668505 50.9081858,8.46731345 50.9976051,8.68091854 C51.1068907,8.95910748 51.2136943,9.1155873 51.318017,9.15035906 C51.5763302,9.22487498 51.7526805,9.26213187 51.8470679,9.26213081 L52.9200742,9.26213081 Z M54.9468639,11.3112751 C54.9468618,11.3112751 55.2523692,11.6192665 55.8633904,12.2352527 L54.909607,13.2337441 L54.0452408,12.3172177 L54.9468639,11.3112751 M52.9349776,11.3038228 C52.9349766,11.3038228 53.240485,11.6118143 53.8515041,12.2278005 L52.8977207,13.226293 L52.0333545,12.3097665 L52.9349776,11.3038228 M41.1766164,6.9819919 C41.3057724,7.38437297 41.5715399,7.87119884 41.97392,8.44247269 C41.6162491,9.81353736 40.9481047,10.4990681 39.9694848,10.4990681 L38.9113809,10.4990681 C38.4990624,10.4990681 38.2010051,10.4071679 38.017209,10.2233654 C38.0023003,10.7747708 37.9600763,11.1299555 37.8905349,11.2889205 C37.70176,11.8055521 36.8672006,12.5954024 35.3868535,13.6584755 C34.1598494,14.542709 33.2209694,15.0543735 32.5702125,15.1934712 C32.5702125,14.9053449 32.6422422,14.5228385 32.7863038,14.04595 C33.0893282,13.9366592 33.8319863,13.5168959 35.0142824,12.7866582 C35.0639554,12.7568503 35.6103928,12.3271518 36.6535976,11.4975606 C37.0559702,11.1845999 37.2447388,10.81948 37.2199065,10.4021997 L35.446465,10.8492857 C35.3818832,10.6654842 35.3495934,10.409652 35.3495966,10.0817879 C35.3495934,9.38632189 35.4638482,8.72562978 35.692362,8.09970732 C35.9655775,7.39430821 36.2909564,7.04160336 36.6684999,7.04160336 C37.1056453,7.04160336 37.5601825,7.60294833 38.0321124,8.72562766 C38.2059733,9.08329749 38.4990624,9.26213187 38.9113809,9.26213081 L40.0141929,9.26213081 C40.222832,9.26213187 40.4836324,9.10316798 40.7965941,8.78523913 C40.632661,8.53189201 40.550695,8.37789626 40.5506961,8.32324977 C40.550695,7.70726785 40.6848203,7.2552148 40.953074,6.96708956 C41.0971323,6.9571575 41.1716472,6.96212416 41.1766164,6.9819919 Z M41.0499423,12.8015616 L41.0686461,12.8204181 C41.0873504,12.8392746 41.1200833,12.8722736 41.1668447,12.9194151 L41.2790722,13.0325548 C41.4318266,13.1865507 41.6609587,13.4175451 41.9664688,13.7255392 L41.0126854,14.7240307 L40.1483192,13.8075042 L41.0499423,12.8015616 Z M42.0707883,11.147343 L42.1456048,11.2227696 L42.1929434,11.2704932 L42.3222591,11.4008603 C42.4746671,11.5545072 42.6963523,11.7779939 42.9873148,12.0713207 L42.0335314,13.0698132 L41.1691652,12.1532867 L42.0707883,11.147343 Z M40.058902,11.1398918 L40.0776063,11.1587485 C40.0838411,11.165034 40.0916346,11.1728909 40.1009869,11.1823193 L40.2880327,11.3708859 C40.4407871,11.524882 40.669919,11.7558764 40.9754285,12.0638695 L40.0216451,13.0623609 L39.157279,12.1458355 L40.058902,11.1398918 Z M22.5852928,5.14148883 L22.9578639,5.21600263 C22.9727609,5.340199 22.9802121,5.46190494 22.9802184,5.58112256 C22.9802121,5.91395799 22.935503,6.28652909 22.8460921,6.69883799 C22.6722195,6.78825836 22.4089361,6.98944731 22.0562408,7.30240377 C21.7035349,7.61039949 21.422864,7.80165214 21.2142292,7.87616381 C20.9062324,8.80014358 21.1397101,9.26213187 21.9146633,9.26213081 L24.3289275,9.26213081 C24.4481494,9.26213187 24.7089498,8.67098541 25.1113276,7.48868932 C25.6180229,7.4141787 25.8813064,7.43156511 25.90118,7.54084961 C25.985627,7.88361816 26.1023658,8.24625402 26.2513976,8.62875931 C26.4053902,9.01126777 26.5569029,9.2223909 26.7059348,9.26213081 L27.6224612,9.26213081 C27.5876874,8.50705443 27.8956799,7.79171689 28.5464389,7.11611822 L28.6209527,6.52000361 C28.6904983,6.281562 28.7650121,6.08534121 28.8444962,5.93134016 L28.9637191,6.2964601 C30.1162042,6.52497494 31.0699865,7.01428488 31.8250692,7.76439312 C31.9194493,8.00780924 31.9666457,8.243771 31.9666457,8.47227842 C31.9666457,8.92433359 31.7555172,9.33664673 31.3332742,9.70921677 C29.9920142,10.1115947 28.9587499,10.3276859 28.2334782,10.3574917 C27.8934232,10.4362845 27.6226075,10.4821888 27.4210309,10.4952047 L26.7506428,10.4990681 C26.6910282,10.4990681 26.5345484,10.4369736 26.2812034,10.3127825 C25.9135962,10.1190458 25.6826026,9.92282504 25.5882193,9.72411911 L25.4615452,9.86569659 C25.4416726,9.96008194 25.3050633,10.0966913 25.0517162,10.2755257 C24.8281716,10.4245543 24.7064657,10.4990681 24.6865963,10.4990681 L21.944469,10.4990681 C21.3086092,10.4990681 20.891329,10.409652 20.6926284,10.2308165 C20.4541793,9.99733883 20.1735084,9.71170085 19.8506167,9.37390257 C18.9961837,10.124014 18.4447782,10.4990681 18.1963982,10.4990681 L16.557083,10.4990681 C16.1447646,10.4990681 15.8467072,10.4071679 15.6629111,10.2233654 C15.6480024,10.7747708 15.6057784,11.1299555 15.536237,11.2889205 C15.3474621,11.8055521 14.5129027,12.5954024 13.0325556,13.6584755 C11.8055515,14.542709 10.8666715,15.0543735 10.2159146,15.1934712 C10.2159146,14.9053449 10.2879443,14.5228385 10.4320059,14.04595 C10.7350303,13.9366592 11.4776884,13.5168959 12.6599845,12.7866582 C12.7096576,12.7568503 13.2560949,12.3271518 14.2992997,11.4975606 C14.7016723,11.1845999 14.8904409,10.81948 14.8656086,10.4021997 L13.0921671,10.8492857 C13.0275853,10.6654842 12.9952955,10.409652 12.9952987,10.0817879 C12.9952955,9.38632189 13.1095503,8.72562978 13.3380641,8.09970732 C13.6112796,7.39430821 13.9366585,7.04160336 14.314202,7.04160336 C14.7513474,7.04160336 15.2058846,7.60294833 15.6778145,8.72562766 C15.8516754,9.08329749 16.1447646,9.26213187 16.557083,9.26213081 L17.5183186,9.26213081 C18.0250139,9.26213187 18.3777156,9.09820089 18.5764215,8.77033573 C18.2187517,7.99538992 17.6946678,7.38188889 17.0041689,6.92983267 L17.2351636,5.44699731 L17.5034152,5.35758011 C17.9107591,5.98350469 18.5416466,6.29646434 19.3960796,6.2964601 C20.4591464,6.29646434 21.5222164,5.91147391 22.5852928,5.14148883 Z M24.8654306,3.74807067 C24.8654304,3.74807067 24.8794587,3.76221347 24.9075155,3.7904989 L24.9823337,3.86592652 C25.013508,3.89735463 25.0509172,3.9350683 25.0945613,3.97906746 L25.2441983,4.12992139 C25.3844831,4.27134664 25.563736,4.45205591 25.7819571,4.67204831 L24.8281737,5.67053976 L23.9638076,4.75401434 L24.8654306,3.74807067 Z M19.9772908,2.50368136 L20.0941924,2.62153752 C20.2344764,2.76296428 20.501018,3.03167342 20.8938173,3.4276588 L19.9400339,4.4261513 L19.0756677,3.50962482 L19.9772908,2.50368136 Z M3.78532778,3.45001336 C3.89957884,3.44008554 4.05605876,3.75304518 4.25476809,4.38889334 C4.44353294,5.01482004 4.6993652,6.10024354 5.02226559,7.6451702 C5.27064106,8.43502365 5.61340665,8.97400981 6.0505633,9.26213081 L7.52594696,9.26213081 C7.73458591,9.26213187 7.99538578,9.10316798 8.30834744,8.78523913 C8.14441433,8.53189201 8.06244862,8.37789626 8.06245011,8.32324977 C8.06244862,7.70726785 8.1965743,7.2552148 8.46482747,6.96708956 C8.60888606,6.9571575 8.68340092,6.96212416 8.68837013,6.9819919 C8.81752618,7.38437297 9.08329368,7.87119884 9.48567369,8.44247269 C9.1280028,9.81353736 8.45985805,10.4990681 7.48123836,10.4990681 L6.05801478,10.4990681 C5.64072851,10.4990681 5.28306017,10.287945 4.98500848,9.86569659 C4.86081275,9.69679851 4.67949471,9.33167858 4.44105385,8.77033573 C4.03370452,9.55522103 3.70832567,9.97001718 3.46491623,10.0147252 C3.27806439,10.0544812 2.81601227,10.1912729 2.07875878,10.4251013 L2.09385262,10.4245543 C2.33726344,10.4245543 2.54590334,10.5288738 2.71977296,10.7375139 C2.89860406,10.9511212 2.98802454,11.2069545 2.98802454,11.5050118 C2.98802454,11.803068 2.89860406,12.0564162 2.71977296,12.2650584 C2.54590334,12.4736964 2.33726344,12.5780181 2.09385262,12.5780181 C1.83553407,12.5780181 1.61944278,12.4736964 1.44557793,12.2650584 C1.2766772,12.0564162 1.19222922,11.803068 1.19222922,11.5050118 C1.19222922,11.2069545 1.2766772,10.9511212 1.44557793,10.7375139 C1.50084425,10.6711936 1.56037717,10.615414 1.62417671,10.5701749 L1.47538366,10.618291 C0.89417075,10.7871902 0.442117594,11.0579258 0.119222922,11.430498 C0.0397406561,11.3410797 9.59676782e-13,11.2144056 9.59676782e-13,11.0504746 C9.59676782e-13,10.9312517 0.0248377908,10.7623526 0.0745143263,10.5437772 C0.144060607,10.2804938 0.183801475,10.1066265 0.193737248,10.0221764 C0.794818421,9.51548005 1.3909324,9.22487498 1.98208108,9.15035906 C3.09482496,8.97649389 3.81264562,8.75295144 4.13554516,8.47973065 C4.16037872,7.68491329 3.832516,6.43307473 3.15195606,4.72420861 L3.78532778,3.45001336 Z M8.01029013,3.43510997 L8.12719288,3.55296608 C8.15836716,3.58439425 8.19577634,3.62210796 8.23942043,3.66610716 L8.38905738,3.81696116 C8.5293421,3.95838643 8.70859496,4.13909558 8.92681597,4.35908761 L7.97303292,5.35758011 L7.10866673,4.44105364 L8.01029013,3.43510997 Z" id="wikipedia-tagline-ps" fill="#000000" fill-rule="nonzero"></path>
    </g>
</svg>

<svg xmlns="http://www.w3.org/2000/svg" width="84" height="16"><path fill="#000" fill-rule="nonzero" d="M82.22 6.982c.128.402.394.89.796 1.46-.357 1.372-1.025 2.057-2.004 2.057h-1.058c-.412 0-.71-.092-.894-.276-.015.552-.057.907-.127 1.066-.189.517-1.023 1.306-2.504 2.37-1.227.884-2.166 1.395-2.816 1.534 0-.288.072-.67.216-1.147.303-.11 1.045-.53 2.228-1.26.05-.03.596-.459 1.64-1.288.401-.313.59-.679.565-1.096l-1.773.447c-.065-.184-.097-.44-.097-.767 0-.696.114-1.356.343-1.982.273-.706.598-1.058.976-1.058.437 0 .892.56 1.364 1.684.173.357.467.536.879.536h1.103c.208 0 .47-.159.782-.477-.164-.253-.246-.407-.246-.462 0-.616.134-1.068.403-1.356.144-.01.218-.005.223.015Zm.863 4.33.02.018.055.057.842.848-.954.999-.864-.917.901-1.006Zm-2.011-.008.018.019.024.023.074.076.8.806-.954.998-.864-.916.902-1.006Zm-15.298-4.94c.725.869 1.137 1.604 1.237 2.205v.298c0 1.332-.065 2.146-.194 2.444-.566 1.212-1.113 2.054-1.64 2.526-1.117.91-1.986 1.498-2.607 1.766.03-.372.124-.869.283-1.49 1.351-.68 2.337-1.796 2.958-3.346.045-.313.003-.536-.127-.67l-.223.022c-.15.06-.318.09-.507.09-.288 0-.591-.073-.909-.217.025-.57.243-1.192.656-1.862l1.073-1.766Zm-4.933.26c.06.025.253.286.581.783.328.492.5.75.514.775.02.238-.064.638-.253 1.2-.342 1.04-1.033 1.98-2.073 2.818a.758.758 0 0 1 .292-.054c.243 0 .452.104.626.313.179.213.268.47.268.767 0 .298-.09.552-.268.76-.174.209-.383.313-.626.313a.811.811 0 0 1-.648-.313 1.17 1.17 0 0 1-.254-.76c0-.286.078-.534.234-.742-.212.158-.44.31-.68.46-.855.536-1.625.896-2.31 1.08-.01 0 .027-.194.111-.582.085-.437.132-.675.142-.715 2.662-1.118 4.267-2.283 4.813-3.495L60.372 7.9c.05-.388.206-.813.469-1.275Zm-7.92 2.638c.208 0 .469-.159.781-.477-.163-.253-.245-.407-.245-.462 0-.616.134-1.068.402-1.356.144-.01.219-.005.223.015.13.402.395.89.798 1.46-.358 1.372-1.026 2.057-2.005 2.057h-1.028c-.82 0-1.356-.117-1.61-.35-.476-.462-.715-1.133-.715-2.012V4.113c0-1.873-.064-2.968-.194-3.286L50.454 0c.198.502.32 1.264.365 2.288.074 1.028.09 1.773.044 2.235-.03.462-.042 1.177-.037 2.146.025 1.128.082 1.798.172 2.012.109.278.216.435.32.47.258.074.435.111.53.111h1.072Zm2.026 2.05.916.923-.953.999-.865-.917.902-1.006m-2.012-.007.917.924-.954.998-.865-.916.902-1.006M41.177 6.982c.129.402.395.89.797 1.46-.358 1.372-1.026 2.057-2.005 2.057h-1.058c-.412 0-.71-.092-.894-.276-.015.552-.057.907-.126 1.066-.19.517-1.024 1.306-2.504 2.37-1.227.884-2.166 1.395-2.817 1.534 0-.288.072-.67.216-1.147.303-.11 1.046-.53 2.228-1.26.05-.03.596-.459 1.64-1.288.402-.313.59-.679.566-1.096l-1.774.447c-.064-.184-.096-.44-.096-.767 0-.696.114-1.356.342-1.982.274-.706.599-1.058.976-1.058.438 0 .892.56 1.364 1.684.174.357.467.536.88.536h1.102c.209 0 .47-.159.783-.477-.164-.253-.246-.407-.246-.462 0-.616.134-1.068.402-1.356.144-.01.219-.005.224.015Zm-.127 5.82.019.018c.018.02.051.052.098.1l.112.113.687.693-.953.998-.865-.916.902-1.006Zm1.02-1.655.076.076.047.047.13.13.664.671-.953.999-.865-.917.902-1.006Zm-2.011-.007.019.019.023.023.187.189.687.693-.953.998-.865-.916.902-1.006ZM22.585 5.14l.373.075c.015.124.022.246.022.365 0 .333-.044.706-.134 1.118-.174.09-.437.29-.79.603-.352.308-.633.5-.842.574-.308.924-.074 1.386.7 1.386h2.415c.12 0 .38-.591.782-1.773.507-.075.77-.057.79.052.085.343.201.705.35 1.088.154.382.306.593.455.633h.916c-.034-.755.274-1.47.924-2.146l.075-.596c.07-.238.144-.435.223-.589l.12.365c1.152.229 2.106.718 2.861 1.468.094.244.142.48.142.708 0 .452-.211.865-.634 1.237-1.341.403-2.374.619-3.1.648-.34.08-.61.125-.812.138l-.67.004c-.06 0-.216-.062-.47-.186-.367-.194-.598-.39-.693-.589l-.126.142c-.02.094-.157.23-.41.41-.224.149-.346.223-.365.223h-2.743c-.635 0-1.053-.09-1.251-.268-.239-.234-.52-.52-.842-.857-.855.75-1.406 1.125-1.655 1.125h-1.639c-.412 0-.71-.092-.894-.276-.015.552-.057.907-.127 1.066-.189.517-1.023 1.306-2.503 2.37-1.227.884-2.166 1.395-2.817 1.534 0-.288.072-.67.216-1.147.303-.11 1.046-.53 2.228-1.26.05-.03.596-.459 1.64-1.288.402-.313.59-.679.566-1.096l-1.774.447c-.064-.184-.097-.44-.097-.767 0-.696.115-1.356.343-1.982.273-.706.599-1.058.976-1.058.437 0 .892.56 1.364 1.684.174.357.467.536.88.536h.96c.507 0 .86-.164 1.058-.492a4.307 4.307 0 0 0-1.572-1.84l.231-1.483.268-.09c.408.627 1.039.94 1.893.94 1.063 0 2.126-.386 3.19-1.156Zm2.28-1.393.043.042.074.076.113.113.15.15.537.543-.954.999-.864-.917.901-1.006Zm-4.888-1.244.117.118.8.806-.954.998-.864-.916.901-1.006ZM3.785 3.45c.115-.01.271.303.47.939.189.626.444 1.711.767 3.256.249.79.591 1.329 1.029 1.617h1.475c.209 0 .47-.159.782-.477-.164-.253-.246-.407-.246-.462 0-.616.135-1.068.403-1.356.144-.01.218-.005.223.015.13.402.395.89.798 1.46C9.128 9.814 8.46 10.5 7.48 10.5H6.058c-.417 0-.775-.211-1.073-.633-.124-.17-.306-.534-.544-1.096-.407.785-.733 1.2-.976 1.245-.187.04-.649.176-1.386.41h.015c.243 0 .452.104.626.313.179.213.268.469.268.767 0 .298-.09.551-.268.76-.174.209-.383.313-.626.313a.811.811 0 0 1-.648-.313 1.17 1.17 0 0 1-.254-.76 1.2 1.2 0 0 1 .254-.767.944.944 0 0 1 .178-.168l-.149.048c-.58.17-1.033.44-1.356.812-.08-.089-.119-.216-.119-.38 0-.119.025-.288.075-.506.07-.264.109-.437.119-.522.6-.507 1.197-.797 1.788-.872 1.113-.174 1.83-.397 2.154-.67.024-.795-.303-2.047-.984-3.756l.633-1.274Zm4.225-.015.117.118.112.113.15.151.538.542-.954.999-.864-.917.901-1.006Z"/></svg>
